icons/modern/nose-medium-dark.svg

<svg width="32" height="32" viewBox="0 0 32 32" fill="none" xmlns="http://www.w3.org/2000/svg">
<g filter="url(#filter0_i_20020_4943)">
<path d="M13.0147 7.04174C13.3129 5.7113 14.4939 4.76561 15.8574 4.76561C17.2208 4.76561 18.4019 5.7113 18.7 7.04174L20.6308 15.8125C20.8574 16.6328 21.6482 17.1852 22.4667 17.2422C24.5995 17.3906 26.2734 19.035 26.2734 21.1406C26.2734 23.2462 24.5665 24.9531 22.4609 24.9531C22.4073 24.9531 22.3541 24.952 22.3011 24.9498C21.3317 24.9099 20.2573 25.2037 19.5464 25.864C18.5788 26.7628 17.2822 27.3125 15.8574 27.3125C14.4325 27.3125 13.1359 26.7628 12.1683 25.864C11.4575 25.2037 10.383 24.9099 9.41364 24.9498C9.36066 24.952 9.30737 24.9531 9.25385 24.9531C7.14825 24.9531 5.44135 23.2462 5.44135 21.1406C5.44135 19.035 7.11517 17.3906 9.24799 17.2422C10.0665 17.1852 10.8574 16.6328 11.0839 15.8125L13.0147 7.04174Z" fill="url(#paint0_linear_20020_4943)"/>
</g>
<path d="M13.0147 7.04174C13.3129 5.7113 14.4939 4.76561 15.8574 4.76561C17.2208 4.76561 18.4019 5.7113 18.7 7.04174L20.6308 15.8125C20.8574 16.6328 21.6482 17.1852 22.4667 17.2422C24.5995 17.3906 26.2734 19.035 26.2734 21.1406C26.2734 23.2462 24.5665 24.9531 22.4609 24.9531C22.4073 24.9531 22.3541 24.952 22.3011 24.9498C21.3317 24.9099 20.2573 25.2037 19.5464 25.864C18.5788 26.7628 17.2822 27.3125 15.8574 27.3125C14.4325 27.3125 13.1359 26.7628 12.1683 25.864C11.4575 25.2037 10.383 24.9099 9.41364 24.9498C9.36066 24.952 9.30737 24.9531 9.25385 24.9531C7.14825 24.9531 5.44135 23.2462 5.44135 21.1406C5.44135 19.035 7.11517 17.3906 9.24799 17.2422C10.0665 17.1852 10.8574 16.6328 11.0839 15.8125L13.0147 7.04174Z" fill="url(#paint1_linear_20020_4943)"/>
<path d="M13.0147 7.04174C13.3129 5.7113 14.4939 4.76561 15.8574 4.76561C17.2208 4.76561 18.4019 5.7113 18.7 7.04174L20.6308 15.8125C20.8574 16.6328 21.6482 17.1852 22.4667 17.2422C24.5995 17.3906 26.2734 19.035 26.2734 21.1406C26.2734 23.2462 24.5665 24.9531 22.4609 24.9531C22.4073 24.9531 22.3541 24.952 22.3011 24.9498C21.3317 24.9099 20.2573 25.2037 19.5464 25.864C18.5788 26.7628 17.2822 27.3125 15.8574 27.3125C14.4325 27.3125 13.1359 26.7628 12.1683 25.864C11.4575 25.2037 10.383 24.9099 9.41364 24.9498C9.36066 24.952 9.30737 24.9531 9.25385 24.9531C7.14825 24.9531 5.44135 23.2462 5.44135 21.1406C5.44135 19.035 7.11517 17.3906 9.24799 17.2422C10.0665 17.1852 10.8574 16.6328 11.0839 15.8125L13.0147 7.04174Z" fill="url(#paint2_radial_20020_4943)"/>
<path d="M13.0147 7.04174C13.3129 5.7113 14.4939 4.76561 15.8574 4.76561C17.2208 4.76561 18.4019 5.7113 18.7 7.04174L20.6308 15.8125C20.8574 16.6328 21.6482 17.1852 22.4667 17.2422C24.5995 17.3906 26.2734 19.035 26.2734 21.1406C26.2734 23.2462 24.5665 24.9531 22.4609 24.9531C22.4073 24.9531 22.3541 24.952 22.3011 24.9498C21.3317 24.9099 20.2573 25.2037 19.5464 25.864C18.5788 26.7628 17.2822 27.3125 15.8574 27.3125C14.4325 27.3125 13.1359 26.7628 12.1683 25.864C11.4575 25.2037 10.383 24.9099 9.41364 24.9498C9.36066 24.952 9.30737 24.9531 9.25385 24.9531C7.14825 24.9531 5.44135 23.2462 5.44135 21.1406C5.44135 19.035 7.11517 17.3906 9.24799 17.2422C10.0665 17.1852 10.8574 16.6328 11.0839 15.8125L13.0147 7.04174Z" fill="url(#paint3_radial_20020_4943)"/>
<path d="M13.0147 7.04174C13.3129 5.7113 14.4939 4.76561 15.8574 4.76561C17.2208 4.76561 18.4019 5.7113 18.7 7.04174L20.6308 15.8125C20.8574 16.6328 21.6482 17.1852 22.4667 17.2422C24.5995 17.3906 26.2734 19.035 26.2734 21.1406C26.2734 23.2462 24.5665 24.9531 22.4609 24.9531C22.4073 24.9531 22.3541 24.952 22.3011 24.9498C21.3317 24.9099 20.2573 25.2037 19.5464 25.864C18.5788 26.7628 17.2822 27.3125 15.8574 27.3125C14.4325 27.3125 13.1359 26.7628 12.1683 25.864C11.4575 25.2037 10.383 24.9099 9.41364 24.9498C9.36066 24.952 9.30737 24.9531 9.25385 24.9531C7.14825 24.9531 5.44135 23.2462 5.44135 21.1406C5.44135 19.035 7.11517 17.3906 9.24799 17.2422C10.0665 17.1852 10.8574 16.6328 11.0839 15.8125L13.0147 7.04174Z" fill="url(#paint4_radial_20020_4943)"/>
<path d="M13.0147 7.04174C13.3129 5.7113 14.4939 4.76561 15.8574 4.76561C17.2208 4.76561 18.4019 5.7113 18.7 7.04174L20.6308 15.8125C20.8574 16.6328 21.6482 17.1852 22.4667 17.2422C24.5995 17.3906 26.2734 19.035 26.2734 21.1406C26.2734 23.2462 24.5665 24.9531 22.4609 24.9531C22.4073 24.9531 22.3541 24.952 22.3011 24.9498C21.3317 24.9099 20.2573 25.2037 19.5464 25.864C18.5788 26.7628 17.2822 27.3125 15.8574 27.3125C14.4325 27.3125 13.1359 26.7628 12.1683 25.864C11.4575 25.2037 10.383 24.9099 9.41364 24.9498C9.36066 24.952 9.30737 24.9531 9.25385 24.9531C7.14825 24.9531 5.44135 23.2462 5.44135 21.1406C5.44135 19.035 7.11517 17.3906 9.24799 17.2422C10.0665 17.1852 10.8574 16.6328 11.0839 15.8125L13.0147 7.04174Z" fill="url(#paint5_radial_20020_4943)"/>
<path d="M11.2962 25.2985C10.7089 25.0373 10.0394 24.924 9.41364 24.9498C9.36066 24.952 9.30737 24.9531 9.25385 24.9531C8.8274 24.9531 8.4173 24.8831 8.03442 24.7539C7.62977 24.6174 7.51374 24.115 7.85724 23.8613C8.2178 23.5949 8.66372 23.4375 9.14642 23.4375C10.2404 23.4375 11.1454 24.2463 11.2962 25.2985Z" fill="url(#paint6_radial_20020_4943)"/>
<path d="M11.2962 25.2985C10.7089 25.0373 10.0394 24.924 9.41364 24.9498C9.36066 24.952 9.30737 24.9531 9.25385 24.9531C8.8274 24.9531 8.4173 24.8831 8.03442 24.7539C7.62977 24.6174 7.51374 24.115 7.85724 23.8613C8.2178 23.5949 8.66372 23.4375 9.14642 23.4375C10.2404 23.4375 11.1454 24.2463 11.2962 25.2985Z" fill="url(#paint7_radial_20020_4943)"/>
<path d="M23.8576 23.8613C24.2011 24.115 24.0851 24.6174 23.6804 24.7539C23.2975 24.8831 22.8874 24.9531 22.461 24.9531C22.4075 24.9531 22.3542 24.952 22.3012 24.9498C21.6754 24.924 21.0059 25.0373 20.4186 25.2985C20.5694 24.2463 21.4744 23.4375 22.5684 23.4375C23.0511 23.4375 23.497 23.5949 23.8576 23.8613Z" fill="url(#paint8_radial_20020_4943)"/>
<path d="M23.8576 23.8613C24.2011 24.115 24.0851 24.6174 23.6804 24.7539C23.2975 24.8831 22.8874 24.9531 22.461 24.9531C22.4075 24.9531 22.3542 24.952 22.3012 24.9498C21.6754 24.924 21.0059 25.0373 20.4186 25.2985C20.5694 24.2463 21.4744 23.4375 22.5684 23.4375C23.0511 23.4375 23.497 23.5949 23.8576 23.8613Z" fill="url(#paint9_radial_20020_4943)"/>
<g filter="url(#filter1_f_20020_4943)">
<path d="M15.5102 19.808L15.9889 7.20384C16.0091 6.67205 16.5446 6.31653 17.0425 6.50436C17.2931 6.59889 17.4776 6.8155 17.5311 7.07795L20.0475 19.4376C20.3368 20.8584 19.251 22.1875 17.8011 22.1875C16.5008 22.1875 15.4609 21.1073 15.5102 19.808Z" fill="url(#paint10_linear_20020_4943)"/>
</g>
<g filter="url(#filter2_f_20020_4943)">
<path d="M23.2588 22.0312H18.9199C18.5402 22.0312 18.2324 21.7234 18.2324 21.3437C18.2324 20.964 18.5402 20.6562 18.9199 20.6562H21.7953C22.4399 20.6562 22.9319 20.08 22.8308 19.4434C22.7243 18.7722 23.2966 18.1588 23.9064 18.4588C24.5679 18.7841 24.9777 19.3022 25.2178 19.8659C25.7162 21.036 24.5306 22.0312 23.2588 22.0312Z" fill="url(#paint11_linear_20020_4943)"/>
</g>
<g filter="url(#filter3_f_20020_4943)">
<path d="M10.7214 18.9821L10.3796 22.1917C10.3173 22.7766 9.75335 23.1834 9.25085 22.8775C8.26596 22.2779 7.51271 21.1475 7.70116 19.875C7.86515 18.7676 8.92754 18.2356 9.84382 18.0569C10.3811 17.9521 10.7794 18.4377 10.7214 18.9821Z" fill="#976B5E"/>
</g>
<defs>
<filter id="filter0_i_20020_4943" x="5.44135" y="4.76561" width="21.082" height="22.7969" filterUnits="userSpaceOnUse" color-interpolation-filters="sRGB">
<feFlood flood-opacity="0" result="BackgroundImageFix"/>
<feBlend mode="normal" in="SourceGraphic" in2="BackgroundImageFix" result="shape"/>
<feColorMatrix in="SourceAlpha" type="matrix" values="0 0 0 0 0 0 0 0 0 0 0 0 0 0 0 0 0 0 127 0" result="hardAlpha"/>
<feOffset dx="0.25" dy="0.25"/>
<feGaussianBlur stdDeviation="1"/>
<feComposite in2="hardAlpha" operator="arithmetic" k2="-1" k3="1"/>
<feColorMatrix type="matrix" values="0 0 0 0 0.45098 0 0 0 0 0.341176 0 0 0 0 0.298039 0 0 0 1 0"/>
<feBlend mode="normal" in2="shape" result="effect1_innerShadow_20020_4943"/>
</filter>
<filter id="filter1_f_20020_4943" x="13.0085" y="3.95358" width="9.58582" height="20.7339" filterUnits="userSpaceOnUse" color-interpolation-filters="sRGB">
<feFlood flood-opacity="0" result="BackgroundImageFix"/>
<feBlend mode="normal" in="SourceGraphic" in2="BackgroundImageFix" result="shape"/>
<feGaussianBlur stdDeviation="1.25" result="effect1_foregroundBlur_20020_4943"/>
</filter>
<filter id="filter2_f_20020_4943" x="17.2324" y="17.3806" width="9.10187" height="5.65067" filterUnits="userSpaceOnUse" color-interpolation-filters="sRGB">
<feFlood flood-opacity="0" result="BackgroundImageFix"/>
<feBlend mode="normal" in="SourceGraphic" in2="BackgroundImageFix" result="shape"/>
<feGaussianBlur stdDeviation="0.5" result="effect1_foregroundBlur_20020_4943"/>
</filter>
<filter id="filter3_f_20020_4943" x="5.67212" y="16.0425" width="7.05487" height="8.93948" filterUnits="userSpaceOnUse" color-interpolation-filters="sRGB">
<feFlood flood-opacity="0" result="BackgroundImageFix"/>
<feBlend mode="normal" in="SourceGraphic" in2="BackgroundImageFix" result="shape"/>
<feGaussianBlur stdDeviation="1" result="effect1_foregroundBlur_20020_4943"/>
</filter>
<linearGradient id="paint0_linear_20020_4943" x1="15.8574" y1="12.7069" x2="15.8574" y2="28.3125" gradientUnits="userSpaceOnUse">
<stop stop-color="#8E6657"/>
<stop offset="1" stop-color="#7B5050"/>
</linearGradient>
<linearGradient id="paint1_linear_20020_4943" x1="22.6699" y1="14" x2="15.8574" y2="16.5051" gradientUnits="userSpaceOnUse">
<stop stop-color="#A27E6E"/>
<stop offset="1" stop-color="#A27E6E" stop-opacity="0"/>
</linearGradient>
<radialGradient id="paint2_radial_20020_4943" cx="0" cy="0" r="1" gradientUnits="userSpaceOnUse" gradientTransform="translate(14.3454 26.5891) rotate(-90) scale(6.46491 8.5603)">
<stop stop-color="#7C416E"/>
<stop offset="1" stop-color="#7C416E" stop-opacity="0"/>
</radialGradient>
<radialGradient id="paint3_radial_20020_4943" cx="0" cy="0" r="1" gradientUnits="userSpaceOnUse" gradientTransform="translate(22.3624 24.8859) rotate(-91.2731) scale(2.15998 3.02294)">
<stop stop-color="#8A5E70"/>
<stop offset="1" stop-color="#8A5E70" stop-opacity="0"/>
</radialGradient>
<radialGradient id="paint4_radial_20020_4943" cx="0" cy="0" r="1" gradientUnits="userSpaceOnUse" gradientTransform="translate(9.32576 25.2858) rotate(-75.1546) scale(2.74701 3.38784)">
<stop stop-color="#764765"/>
<stop offset="1" stop-color="#764765" stop-opacity="0"/>
</radialGradient>
<radialGradient id="paint5_radial_20020_4943" cx="0" cy="0" r="1" gradientUnits="userSpaceOnUse" gradientTransform="translate(11.9214 7.28808) rotate(7.90769) scale(2.50834 10.5863)">
<stop stop-color="#73584E"/>
<stop offset="1" stop-color="#73584E" stop-opacity="0"/>
</radialGradient>
<radialGradient id="paint6_radial_20020_4943" cx="0" cy="0" r="1" gradientUnits="userSpaceOnUse" gradientTransform="translate(10.9199 25.2985) rotate(-140.157) scale(1.79817 1.04812)">
<stop stop-color="#5F414D"/>
<stop offset="1" stop-color="#54294D"/>
</radialGradient>
<radialGradient id="paint7_radial_20020_4943" cx="0" cy="0" r="1" gradientUnits="userSpaceOnUse" gradientTransform="translate(9.48071 25.5) rotate(-103.938) scale(2.20556 3.79711)">
<stop offset="0.652848" stop-color="#643F64" stop-opacity="0"/>
<stop offset="1" stop-color="#643F64"/>
</radialGradient>
<radialGradient id="paint8_radial_20020_4943" cx="0" cy="0" r="1" gradientUnits="userSpaceOnUse" gradientTransform="translate(20.873 25.1562) rotate(-33.0558) scale(2.34895 1.36916)">
<stop stop-color="#5F414D"/>
<stop offset="1" stop-color="#54294D"/>
</radialGradient>
<radialGradient id="paint9_radial_20020_4943" cx="0" cy="0" r="1" gradientUnits="userSpaceOnUse" gradientTransform="translate(22.5762 25.5) rotate(-103.938) scale(2.20556 3.79711)">
<stop offset="0.652848" stop-color="#643F64" stop-opacity="0"/>
<stop offset="1" stop-color="#643F64"/>
</radialGradient>
<linearGradient id="paint10_linear_20020_4943" x1="19.1269" y1="20.5789" x2="18.2694" y2="6.37499" gradientUnits="userSpaceOnUse">
<stop stop-color="#A88075"/>
<stop offset="1" stop-color="#A88075" stop-opacity="0"/>
</linearGradient>
<linearGradient id="paint11_linear_20020_4943" x1="24.1074" y1="20.0781" x2="20.4587" y2="18.8493" gradientUnits="userSpaceOnUse">
<stop stop-color="#A88075"/>
<stop offset="1" stop-color="#A88075" stop-opacity="0"/>
</linearGradient>
</defs>
</svg>

<svg width="32" height="32" fill="none" xmlns="http://www.w3.org/2000/svg"><g filter="url(#a)"><path d="M13.015 7.042a2.913 2.913 0 0 1 5.685 0l1.93 8.77c.227.82 1.018 1.373 1.837 1.43 2.133.149 3.806 1.793 3.806 3.899a3.812 3.812 0 0 1-3.972 3.809c-.97-.04-2.044.254-2.755.914a5.403 5.403 0 0 1-3.689 1.448 5.403 5.403 0 0 1-3.689-1.448c-.71-.66-1.785-.954-2.754-.914a3.812 3.812 0 0 1-3.972-3.81c0-2.105 1.673-3.75 3.806-3.898.819-.057 1.61-.61 1.836-1.43l1.93-8.77Z" fill="url(#b)"/></g><path d="M13.015 7.042a2.913 2.913 0 0 1 5.685 0l1.93 8.77c.227.82 1.018 1.373 1.837 1.43 2.133.149 3.806 1.793 3.806 3.899a3.812 3.812 0 0 1-3.972 3.809c-.97-.04-2.044.254-2.755.914a5.403 5.403 0 0 1-3.689 1.448 5.403 5.403 0 0 1-3.689-1.448c-.71-.66-1.785-.954-2.754-.914a3.812 3.812 0 0 1-3.972-3.81c0-2.105 1.673-3.75 3.806-3.898.819-.057 1.61-.61 1.836-1.43l1.93-8.77Z" fill="url(#c)"/><path d="M13.015 7.042a2.913 2.913 0 0 1 5.685 0l1.93 8.77c.227.82 1.018 1.373 1.837 1.43 2.133.149 3.806 1.793 3.806 3.899a3.812 3.812 0 0 1-3.972 3.809c-.97-.04-2.044.254-2.755.914a5.403 5.403 0 0 1-3.689 1.448 5.403 5.403 0 0 1-3.689-1.448c-.71-.66-1.785-.954-2.754-.914a3.812 3.812 0 0 1-3.972-3.81c0-2.105 1.673-3.75 3.806-3.898.819-.057 1.61-.61 1.836-1.43l1.93-8.77Z" fill="url(#d)"/><path d="M13.015 7.042a2.913 2.913 0 0 1 5.685 0l1.93 8.77c.227.82 1.018 1.373 1.837 1.43 2.133.149 3.806 1.793 3.806 3.899a3.812 3.812 0 0 1-3.972 3.809c-.97-.04-2.044.254-2.755.914a5.403 5.403 0 0 1-3.689 1.448 5.403 5.403 0 0 1-3.689-1.448c-.71-.66-1.785-.954-2.754-.914a3.812 3.812 0 0 1-3.972-3.81c0-2.105 1.673-3.75 3.806-3.898.819-.057 1.61-.61 1.836-1.43l1.93-8.77Z" fill="url(#e)"/><path d="M13.015 7.042a2.913 2.913 0 0 1 5.685 0l1.93 8.77c.227.82 1.018 1.373 1.837 1.43 2.133.149 3.806 1.793 3.806 3.899a3.812 3.812 0 0 1-3.972 3.809c-.97-.04-2.044.254-2.755.914a5.403 5.403 0 0 1-3.689 1.448 5.403 5.403 0 0 1-3.689-1.448c-.71-.66-1.785-.954-2.754-.914a3.812 3.812 0 0 1-3.972-3.81c0-2.105 1.673-3.75 3.806-3.898.819-.057 1.61-.61 1.836-1.43l1.93-8.77Z" fill="url(#f)"/><path d="M13.015 7.042a2.913 2.913 0 0 1 5.685 0l1.93 8.77c.227.82 1.018 1.373 1.837 1.43 2.133.149 3.806 1.793 3.806 3.899a3.812 3.812 0 0 1-3.972 3.809c-.97-.04-2.044.254-2.755.914a5.403 5.403 0 0 1-3.689 1.448 5.403 5.403 0 0 1-3.689-1.448c-.71-.66-1.785-.954-2.754-.914a3.812 3.812 0 0 1-3.972-3.81c0-2.105 1.673-3.75 3.806-3.898.819-.057 1.61-.61 1.836-1.43l1.93-8.77Z" fill="url(#g)"/><path d="M11.296 25.299a4.279 4.279 0 0 0-1.882-.35 3.852 3.852 0 0 1-1.38-.195c-.404-.137-.52-.639-.177-.893a2.172 2.172 0 0 1 3.439 1.437Z" fill="url(#h)"/><path d="M11.296 25.299a4.279 4.279 0 0 0-1.882-.35 3.852 3.852 0 0 1-1.38-.195c-.404-.137-.52-.639-.177-.893a2.172 2.172 0 0 1 3.439 1.437Z" fill="url(#i)"/><path d="M23.858 23.861c.343.254.227.756-.178.893a3.807 3.807 0 0 1-1.379.196 4.28 4.28 0 0 0-1.882.349 2.172 2.172 0 0 1 3.439-1.438Z" fill="url(#j)"/><path d="M23.858 23.861c.343.254.227.756-.178.893a3.807 3.807 0 0 1-1.379.196 4.28 4.28 0 0 0-1.882.349 2.172 2.172 0 0 1 3.439-1.438Z" fill="url(#k)"/><g filter="url(#l)"><path d="m15.51 19.808.479-12.604a.78.78 0 0 1 1.542-.126l2.517 12.36a2.292 2.292 0 1 1-4.538.37Z" fill="url(#m)"/></g><g filter="url(#n)"><path d="M23.259 22.031h-4.34a.687.687 0 1 1 0-1.375h2.876c.645 0 1.137-.576 1.036-1.213-.107-.67.466-1.284 1.075-.984a2.703 2.703 0 0 1 1.312 1.407c.498 1.17-.687 2.165-1.96 2.165Z" fill="url(#o)"/></g><g filter="url(#p)"><path d="m10.721 18.982-.341 3.21c-.063.585-.627.991-1.13.686-.984-.6-1.737-1.73-1.549-3.003.164-1.107 1.227-1.64 2.143-1.818.537-.105.935.38.877.925Z" fill="#976B5E"/></g><defs><radialGradient id="d" cx="0" cy="0" r="1" gradientUnits="userSpaceOnUse" gradientTransform="matrix(0 -6.46491 8.5603 0 14.345 26.59)"><stop stop-color="#7C416E"/><stop offset="1" stop-color="#7C416E" stop-opacity="0"/></radialGradient><radialGradient id="e" cx="0" cy="0" r="1" gradientUnits="userSpaceOnUse" gradientTransform="rotate(-91.273 23.35 1.507) scale(2.15998 3.02294)"><stop stop-color="#8A5E70"/><stop offset="1" stop-color="#8A5E70" stop-opacity="0"/></radialGradient><radialGradient id="f" cx="0" cy="0" r="1" gradientUnits="userSpaceOnUse" gradientTransform="matrix(.70382 -2.65532 3.27476 .868 9.326 25.286)"><stop stop-color="#764765"/><stop offset="1" stop-color="#764765" stop-opacity="0"/></radialGradient><radialGradient id="g" cx="0" cy="0" r="1" gradientUnits="userSpaceOnUse" gradientTransform="matrix(2.48449 .3451 -1.45644 10.48563 11.921 7.288)"><stop stop-color="#73584E"/><stop offset="1" stop-color="#73584E" stop-opacity="0"/></radialGradient><radialGradient id="h" cx="0" cy="0" r="1" gradientUnits="userSpaceOnUse" gradientTransform="matrix(-1.38064 -1.15206 .67152 -.80475 10.92 25.299)"><stop stop-color="#5F414D"/><stop offset="1" stop-color="#54294D"/></radialGradient><radialGradient id="i" cx="0" cy="0" r="1" gradientUnits="userSpaceOnUse" gradientTransform="matrix(-.53126 -2.14062 3.68531 -.91462 9.48 25.5)"><stop offset=".653" stop-color="#643F64" stop-opacity="0"/><stop offset="1" stop-color="#643F64"/></radialGradient><radialGradient id="j" cx="0" cy="0" r="1" gradientUnits="userSpaceOnUse" gradientTransform="rotate(-33.056 52.824 -22.592) scale(2.34895 1.36916)"><stop stop-color="#5F414D"/><stop offset="1" stop-color="#54294D"/></radialGradient><radialGradient id="k" cx="0" cy="0" r="1" gradientUnits="userSpaceOnUse" gradientTransform="rotate(-103.938 21.26 3.92) scale(2.20556 3.79711)"><stop offset=".653" stop-color="#643F64" stop-opacity="0"/><stop offset="1" stop-color="#643F64"/></radialGradient><linearGradient id="b" x1="15.857" y1="12.707" x2="15.857" y2="28.313" gradientUnits="userSpaceOnUse"><stop stop-color="#8E6657"/><stop offset="1" stop-color="#7B5050"/></linearGradient><linearGradient id="c" x1="22.67" y1="14" x2="15.857" y2="16.505" gradientUnits="userSpaceOnUse"><stop stop-color="#A27E6E"/><stop offset="1" stop-color="#A27E6E" stop-opacity="0"/></linearGradient><linearGradient id="m" x1="19.127" y1="20.579" x2="18.269" y2="6.375" gradientUnits="userSpaceOnUse"><stop stop-color="#A88075"/><stop offset="1" stop-color="#A88075" stop-opacity="0"/></linearGradient><linearGradient id="o" x1="24.107" y1="20.078" x2="20.459" y2="18.849" gradientUnits="userSpaceOnUse"><stop stop-color="#A88075"/><stop offset="1" stop-color="#A88075" stop-opacity="0"/></linearGradient><filter id="a" x="5.441" y="4.766" width="21.082" height="22.797" filterUnits="userSpaceOnUse" color-interpolation-filters="sRGB"><feFlood flood-opacity="0" result="BackgroundImageFix"/><feBlend in="SourceGraphic" in2="BackgroundImageFix" result="shape"/><feColorMatrix in="SourceAlpha" values="0 0 0 0 0 0 0 0 0 0 0 0 0 0 0 0 0 0 127 0" result="hardAlpha"/><feOffset dx=".25" dy=".25"/><feGaussianBlur stdDeviation="1"/><feComposite in2="hardAlpha" operator="arithmetic" k2="-1" k3="1"/><feColorMatrix values="0 0 0 0 0.45098 0 0 0 0 0.341176 0 0 0 0 0.298039 0 0 0 1 0"/><feBlend in2="shape" result="effect1_innerShadow_20020_4943"/></filter><filter id="l" x="13.008" y="3.954" width="9.586" height="20.734" filterUnits="userSpaceOnUse" color-interpolation-filters="sRGB"><feFlood flood-opacity="0" result="BackgroundImageFix"/><feBlend in="SourceGraphic" in2="BackgroundImageFix" result="shape"/><feGaussianBlur stdDeviation="1.25" result="effect1_foregroundBlur_20020_4943"/></filter><filter id="n" x="17.232" y="17.381" width="9.102" height="5.651" filterUnits="userSpaceOnUse" color-interpolation-filters="sRGB"><feFlood flood-opacity="0" result="BackgroundImageFix"/><feBlend in="SourceGraphic" in2="BackgroundImageFix" result="shape"/><feGaussianBlur stdDeviation=".5" result="effect1_foregroundBlur_20020_4943"/></filter><filter id="p" x="5.672" y="16.043" width="7.055" height="8.939" filterUnits="userSpaceOnUse" color-interpolation-filters="sRGB"><feFlood flood-opacity="0" result="BackgroundImageFix"/><feBlend in="SourceGraphic" in2="BackgroundImageFix" result="shape"/><feGaussianBlur stdDeviation="1" result="effect1_foregroundBlur_20020_4943"/></filter></defs></svg>
